X: 1
T: Father Tom's Wager
T: the Frog in the Well
T: Close to the Floor
T: the Blackthorn Stick
M: 6/8
L: 1/8
R: jig
S: Deirdre Sullivan & Paul de Grae 
D: Francis Cashin and Tom Cawley (Columbia 1929) "Frog in the Well"
D: Rose Murphy, "Milltown Lass", Ossian OSS-21, track 3(b)
K: G
B/c/ | dge dBG | AEF GDB, | G,B,D GAB | cBc ABc | dge dBG | AEF GDB, |
| G,B,D GAB | cAF G2 :| A | Bdg bag | fed cAF | DGG FAA | GBB ABc |
| Bdg bag |1 fed cAF | DGG FGA | BGG G2 :|2 fed cAB | cec BdB | cAF G3 ||
